resources/svg/layout-grid-fill.svg

<svg fill="currentColor" viewBox="0 0 24 24" xmlns="http://www.w3.org/2000/svg"><path d="M22 12.999V20C22 20.5523 21.5523 21 21 21H13V12.999H22ZM11 12.999V21H3C2.44772 21 2 20.5523 2 20V12.999H11ZM11 3V10.999H2V4C2 3.44772 2.44772 3 3 3H11ZM21 3C21.5523 3 22 3.44772 22 4V10.999H13V3H21Z"/></svg>

<svg xmlns="http://www.w3.org/2000/svg" viewBox="0 0 24 24" fill="currentColor">
    <g>
        <path fill="none" d="M0 0h24v24H0z"/>
        <path d="M22 12.999V20a1 1 0 0 1-1 1h-8v-8.001h9zm-11 0V21H3a1 1 0 0 1-1-1v-7.001h9zM11 3v7.999H2V4a1 1 0 0 1 1-1h8zm10 0a1 1 0 0 1 1 1v6.999h-9V3h8z"/>
    </g>
</svg>
